icons/podcastapp.svg

<svg width="32" height="32" viewBox="0 0 32 32" fill="none" xmlns="http://www.w3.org/2000/svg">
<path d="M3.36667 28.6333C0.913335 26.18 0 22.18 0 16C0 9.82 0.913335 5.82 3.36667 3.36667C5.82 0.913333 9.82 0 16 0C22.18 0 26.18 0.913333 28.6333 3.36667C31.0867 5.82 32 9.82 32 16C32 22.18 31.0867 26.18 28.6333 28.6333C26.18 31.0867 22.18 32 16 32C9.82 32 5.82 31.0867 3.36667 28.6333Z" fill="#354FEE"/>
<path fill-rule="evenodd" clip-rule="evenodd" d="M10.3 11.9C10.3 8.75199 12.852 6.20001 16 6.20001C19.148 6.20001 21.7 8.75199 21.7 11.9V17.1C21.7 20.248 19.148 22.8 16 22.8C12.852 22.8 10.3 20.248 10.3 17.1V11.9ZM16 7.80001C13.7356 7.80001 11.9 9.63564 11.9 11.9V17.1C11.9 19.3644 13.7356 21.2 16 21.2C18.2644 21.2 20.1 19.3644 20.1 17.1V11.9C20.1 9.63564 18.2644 7.80001 16 7.80001Z" fill="#F8FAFC"/>
<path fill-rule="evenodd" clip-rule="evenodd" d="M7.00001 15.85C7.44184 15.85 7.80001 16.2082 7.80001 16.65V17.3C7.80001 21.8287 11.4713 25.5 16 25.5C20.5287 25.5 24.2 21.8287 24.2 17.3V16.65C24.2 16.2082 24.5582 15.85 25 15.85C25.4418 15.85 25.8 16.2082 25.8 16.65V17.3C25.8 22.7124 21.4124 27.1 16 27.1C10.5876 27.1 6.20001 22.7124 6.20001 17.3V16.65C6.20001 16.2082 6.55818 15.85 7.00001 15.85Z" fill="#F8FAFC"/>
<path d="M13.45 10.55C13.45 9.91488 13.9649 9.40001 14.6 9.40001C15.2351 9.40001 15.75 9.91488 15.75 10.55C15.75 11.1851 15.2351 11.7 14.6 11.7C13.9649 11.7 13.45 11.1851 13.45 10.55Z" fill="#F8FAFC"/>
</svg>

<svg xmlns="http://www.w3.org/2000/svg" width="32" height="32" fill="none" viewBox="0 0 32 32">
  <path fill="#354FEE" d="M3.367 28.633C.913 26.18 0 22.18 0 16 0 9.82.913 5.82 3.367 3.367 5.82.913 9.82 0 16 0c6.18 0 10.18.913 12.633 3.367C31.087 5.82 32 9.82 32 16c0 6.18-.913 10.18-3.367 12.633C26.18 31.087 22.18 32 16 32c-6.18 0-10.18-.913-12.633-3.367Z"/>
  <path fill="#F8FAFC" fill-rule="evenodd" d="M10.3 11.9a5.7 5.7 0 1 1 11.4 0v5.2a5.7 5.7 0 0 1-11.4 0v-5.2ZM16 7.8a4.1 4.1 0 0 0-4.1 4.1v5.2a4.1 4.1 0 0 0 8.2 0v-5.2A4.1 4.1 0 0 0 16 7.8Z" clip-rule="evenodd"/>
  <path fill="#F8FAFC" fill-rule="evenodd" d="M7 15.85a.8.8 0 0 1 .8.8v.65a8.2 8.2 0 0 0 16.4 0v-.65a.8.8 0 1 1 1.6 0v.65c0 5.412-4.388 9.8-9.8 9.8-5.412 0-9.8-4.388-9.8-9.8v-.65a.8.8 0 0 1 .8-.8Z" clip-rule="evenodd"/>
  <path fill="#F8FAFC" d="M13.45 10.55a1.15 1.15 0 1 1 2.3 0 1.15 1.15 0 0 1-2.3 0Z"/>
</svg>
